packages/ffe-icons/icons/open/300/md/thumb_up.svg

<svg xmlns="http://www.w3.org/2000/svg" height="24" viewBox="0 -960 960 960" width="24"><path d="M827.691-619.999q28.539 0 50.423 21.885 21.885 21.884 21.885 50.423v64.614q0 6.297-1.616 13.495-1.615 7.197-3.615 13.428L780.135-185.648q-8.598 19.185-28.828 32.416-20.231 13.231-42.218 13.231H288.462v-479.998L521.154-850.69q11.923-11.923 27.615-14.231 15.692-2.308 30.076 5.385 14.384 7.692 21.076 21.845 6.693 14.154 2.846 29.307l-43.076 188.385h268Zm-479.23 25.538V-200H709.23q4.231 0 8.654-2.308 4.424-2.308 6.732-7.693L840-480v-67.691q0-5.385-3.462-8.847-3.462-3.462-8.847-3.462H483.846L534-779.231l-185.539 184.77Zm-176.152 454.46q-29.827 0-51.067-21.241-21.241-21.24-21.241-51.067v-335.382q0-29.827 21.241-51.067 21.24-21.241 51.067-21.241h116.153V-560H172.309q-5.385 0-8.847 3.462-3.462 3.462-3.462 8.847v335.382q0 5.385 3.462 8.847 3.462 3.462 8.847 3.462h116.153v59.999H172.309ZM348.461-200v-394.461V-200Z"/></svg>

<svg xmlns="http://www.w3.org/2000/svg" height="24" viewBox="0 -960 960 960" width="24"><path d="M827.69-620q28.54 0 50.42 21.89Q900-576.23 900-547.69v64.61q0 6.3-1.62 13.5-1.61 7.19-3.61 13.43l-114.64 270.5q-8.59 19.19-28.82 32.42T709.09-140H288.46v-480l232.69-230.69q11.93-11.92 27.62-14.23 15.69-2.31 30.07 5.38 14.39 7.7 21.08 21.85 6.69 14.15 2.85 29.31L559.69-620h268Zm-479.23 25.54V-200h360.77q4.23 0 8.65-2.31 4.43-2.31 6.74-7.69L840-480v-67.69q0-5.39-3.46-8.85t-8.85-3.46H483.85L534-779.23 348.46-594.46ZM172.31-140q-29.83 0-51.07-21.24Q100-182.48 100-212.31v-335.38q0-29.83 21.24-51.07Q142.48-620 172.31-620h116.15v60H172.31q-5.39 0-8.85 3.46t-3.46 8.85v335.38q0 5.39 3.46 8.85t8.85 3.46h116.15v60H172.31Zm176.15-60v-394.46V-200Z"/></svg>
